tellnet/images/employee-at-desk.svg

<svg width="510" height="496" viewBox="0 0 510 496" fill="none" xmlns="http://www.w3.org/2000/svg">
<path d="M143.848 280.914V417.654L121.005 454.929L119.266 457.765H29.1341L27.3129 280.914H143.848Z" fill="#E6E6E6"/>
<path opacity="0.1" d="M365.962 280.914V417.654L388.805 454.93L390.207 280.914H365.962Z" fill="black"/>
<path d="M361.44 277.267V414.008L384.283 451.283L386.021 454.118H476.153L477.975 277.267H361.44Z" fill="#E6E6E6"/>
<path opacity="0.1" d="M458.37 277.267V414.008L435.527 451.283L434.125 277.267H458.37Z" fill="black"/>
<path d="M6.10352e-05 274.533V282.737H489.81V270.886L444.289 247.184H40.0586L6.10352e-05 274.533Z" fill="#E6E6E6"/>
<path opacity="0.1" d="M509.81 274.533V282.736H20V270.886L509.81 274.533Z" fill="black"/>
<path d="M419.707 315.554H441.557L450.662 309.173H409.692L419.707 315.554Z" fill="#3F3D56"/>
<path d="M419.707 341.991H441.557L450.662 335.61H409.692L419.707 341.991Z" fill="#3F3D56"/>
<path d="M419.707 379.367H441.557L450.662 372.985H409.692L419.707 379.367Z" fill="#3F3D56"/>
<path d="M419.707 416.742H441.557L450.662 410.361H409.692L419.707 416.742Z" fill="#3F3D56"/>
<path d="M85.5803 319.201H63.7295L54.6252 312.819H95.5947L85.5803 319.201Z" fill="#3F3D56"/>
<path d="M85.5803 345.637H63.7295L54.6252 339.256H95.5947L85.5803 345.637Z" fill="#3F3D56"/>
<path d="M85.5803 383.013H63.7295L54.6252 376.632H95.5947L85.5803 383.013Z" fill="#3F3D56"/>
<path d="M85.5803 420.389H63.7295L54.6252 414.008H95.5947L85.5803 420.389Z" fill="#3F3D56"/>
<path d="M70.7007 89.0571H254.65C255.563 89.057 256.468 89.2371 257.312 89.5871C258.156 89.9371 258.923 90.4502 259.569 91.0971C260.215 91.7439 260.728 92.5119 261.077 93.357C261.427 94.2022 261.607 95.1081 261.606 96.0229V220.096C261.607 221.011 261.427 221.917 261.077 222.762C260.728 223.607 260.215 224.375 259.569 225.022C258.923 225.669 258.156 226.182 257.312 226.532C256.468 226.882 255.563 227.062 254.65 227.062H184.821L187.437 243.786C187.437 243.786 202.388 251.739 191.876 251.973C181.363 252.207 131.839 251.973 131.839 251.973C131.839 251.973 122.262 251.973 137.446 243.552L139.907 227.062H70.7007C69.7871 227.062 68.8824 226.882 68.0383 226.532C67.1943 226.182 66.4273 225.669 65.7813 225.022C65.1353 224.375 64.6229 223.607 64.2733 222.762C63.9237 221.917 63.7439 221.011 63.744 220.096V96.0229C63.7439 95.1081 63.9237 94.2022 64.2733 93.357C64.6229 92.5119 65.1353 91.7439 65.7813 91.0971C66.4273 90.4502 67.1943 89.9371 68.0383 89.5871C68.8824 89.2371 69.7871 89.057 70.7007 89.0571Z" fill="#3F3D56"/>
<path d="M70.4016 96.4252H254.949V199.812H70.4016V96.4252Z" fill="#F2F2F2"/>
<path d="M162.675 94.32C162.03 94.32 161.507 93.7964 161.507 93.1505C161.507 92.5046 162.03 91.981 162.675 91.981C163.32 91.981 163.843 92.5046 163.843 93.1505C163.843 93.7964 163.32 94.32 162.675 94.32Z" fill="#F2F2F2"/>
<path d="M162.675 222.033C160.224 222.033 158.237 220.043 158.237 217.588C158.237 215.134 160.224 213.144 162.675 213.144C165.127 213.144 167.114 215.134 167.114 217.588C167.114 220.043 165.127 222.033 162.675 222.033Z" fill="#F2F2F2"/>
<path d="M89.5907 264.603V266.943H215.27V265.071L215.097 264.603L211.999 256.183H92.1604L89.5907 264.603Z" fill="#3F3D56"/>
<path d="M271.094 262.075C270.865 263.055 270 264.089 268.047 265.067C261.039 268.575 246.789 264.131 246.789 264.131C246.789 264.131 235.81 262.26 235.81 257.348C236.118 257.136 236.44 256.945 236.773 256.775C239.719 255.214 249.488 251.363 266.81 256.938C268.086 257.339 269.226 258.087 270.103 259.098C270.491 259.481 270.784 259.95 270.956 260.467C271.128 260.985 271.175 261.536 271.094 262.075Z" fill="#3F3D56"/>
<path opacity="0.1" d="M271.094 262.075C262.516 265.366 254.87 265.612 247.023 260.155C244.056 257.958 240.463 256.773 236.772 256.775C239.719 255.214 249.488 251.363 266.81 256.938C268.086 257.339 269.226 258.087 270.103 259.098C270.491 259.481 270.784 259.95 270.956 260.467C271.128 260.985 271.175 261.536 271.094 262.075Z" fill="black"/>
<path d="M260.339 260.155C262.016 260.155 263.376 259.736 263.376 259.219C263.376 258.702 262.016 258.284 260.339 258.284C258.661 258.284 257.302 258.702 257.302 259.219C257.302 259.736 258.661 260.155 260.339 260.155Z" fill="#F2F2F2"/>
<path opacity="0.1" d="M89.5907 264.604V266.943H215.27V265.071L215.097 264.604H89.5907Z" fill="black"/>
<path d="M431.137 0.0212082C432.412 -0.0836515 433.689 0.202036 434.799 0.840414C435.889 1.58755 436.575 2.89646 437.276 4.11448C439.957 8.82706 443.585 12.9309 447.932 16.1662C451.098 18.4886 455.123 21.3843 454.581 25.6663C454.296 27.0804 453.774 28.4361 453.038 29.6766C450.117 35.5802 442.147 40.1425 442.931 46.879C440.029 42.0147 443.911 39.6094 441.009 34.7452C439.627 32.4286 437.226 29.8137 435.14 31.2685C434.441 31.7556 433.982 32.6293 433.255 33.0567C431.519 34.0765 429.673 32.1268 428.136 30.7458C422.838 25.9837 415.304 27.2313 408.711 28.715C405.599 29.4155 402.18 30.3345 400.34 33.3131C397.921 37.2293 402.639 41.4589 403.831 45.8865C403.928 46.2638 403.933 46.659 403.844 47.0385C403.756 47.4179 403.577 47.7703 403.322 48.0653C403.068 48.3604 402.747 48.5895 402.385 48.733C402.023 48.8764 401.632 48.93 401.245 48.8891C399.267 48.6937 396.923 48.5335 396.806 47.6643C394.317 47.753 391.268 47.4708 390.201 44.8759C389.875 43.8491 389.703 42.7798 389.69 41.7025C389.299 37.3436 387.451 33.3669 386.227 29.2182C385.003 25.0695 384.471 20.2075 386.536 16.5293C387.274 15.3055 388.185 14.196 389.243 13.2359C400.965 1.8775 416.376 0.004348 431.137 0.0212082Z" fill="#2F2E41"/>
<path d="M440.382 55.3878C440.382 55.3878 437.832 76.6595 447.18 78.3613C456.527 80.063 438.682 108.993 438.682 108.993L396.194 114.098L406.391 80.063C406.391 80.063 413.189 77.5104 408.94 60.493C404.691 43.4756 440.382 55.3878 440.382 55.3878Z" fill="#FFB8B8"/>
<path d="M466.3 420.836L462.9 467.634H445.056L450.154 420.836H466.3Z" fill="#FFB8B8"/>
<path d="M335.436 332.346L332.887 371.486L313.342 362.977L320.99 330.644L335.436 332.346Z" fill="#FFB8B8"/>
<path d="M479.046 242.154C479.046 242.154 478.197 291.504 473.098 307.67C467.999 323.837 468.849 324.688 469.699 327.24C470.549 329.793 471.398 328.091 471.398 332.346C471.398 336.6 473.098 403.819 471.398 409.775C469.699 415.731 476.497 425.941 471.398 426.792C466.3 427.643 442.506 426.792 441.656 421.687C440.807 416.582 448.455 414.88 445.056 411.477C441.656 408.073 436.558 338.302 436.558 338.302L424.661 289.802L402.567 264.276H355.83L341.384 320.434C341.384 320.434 347.332 336.6 343.083 336.6C338.834 336.6 313.341 341.705 313.341 322.986C313.341 304.267 321.839 248.961 323.538 247.259C325.238 245.557 322.689 239.601 325.238 237.048C327.787 234.496 357.529 216.627 368.576 213.224C379.623 209.821 395.12 205.77 395.12 205.77L479.046 242.154Z" fill="#15234A"/>
<path d="M313.342 356.17C313.342 356.17 326.088 351.916 332.037 364.679C337.985 377.442 335.436 380.845 335.436 380.845C335.436 380.845 315.891 387.652 312.492 384.249C311.013 382.768 306.317 382.254 301.484 382.145C294.122 381.979 292.163 371.55 299.116 369.122C299.323 369.049 299.533 368.986 299.746 368.933C306.544 367.231 313.342 356.17 313.342 356.17Z" fill="#2F2E41"/>
<path d="M421.262 69.427C407.183 69.427 395.769 57.9986 395.769 43.901C395.769 29.8033 407.183 18.3749 421.262 18.3749C435.342 18.3749 446.755 29.8033 446.755 43.901C446.755 57.9986 435.342 69.427 421.262 69.427Z" fill="#FFB8B8"/>
<path d="M454.403 88.9971C454.403 88.9971 412.764 97.5058 402.567 83.8919C392.37 70.2779 388.121 122.181 388.121 122.181L383.022 176.637L390.67 206.417C390.67 206.417 430.61 238.75 443.356 241.303C456.103 243.855 475.647 245.557 475.647 245.557C475.647 245.557 469.699 151.111 469.699 149.409C469.699 147.707 454.403 88.9971 454.403 88.9971Z" fill="#3F3D56"/>
<path d="M441.74 73.0393C441.74 73.0393 451.005 67.7254 453.554 72.8306C456.103 77.9358 479.897 90.6988 482.446 90.6988C484.996 90.6988 477.348 161.321 480.747 169.83C484.146 178.338 500.291 240.452 490.944 245.557C481.596 250.662 488.395 240.452 479.047 253.215C469.7 265.978 423.812 265.978 421.263 260.873C418.713 255.768 441.657 217.478 437.408 181.742C433.16 146.005 426.361 96.6549 432.31 89.848C438.258 83.041 441.74 73.0393 441.74 73.0393Z" fill="#15234A"/>
<path d="M411.065 78.7867L409.881 74.708C409.881 74.708 374.525 86.4445 372.825 94.1023C371.126 101.76 371.975 155.365 377.924 159.619C383.872 163.874 392.37 170.681 386.422 180.891C380.473 191.101 373.675 202.163 368.576 203.014C363.478 203.864 354.13 209.821 356.68 215.777C359.229 221.733 389.821 210.671 389.821 210.671C389.821 210.671 410.215 195.356 409.365 171.531C408.516 147.707 411.065 78.7867 411.065 78.7867Z" fill="#15234A"/>
<path d="M381.323 179.189L401.717 217.478C401.717 217.478 431.459 248.11 414.464 251.513C397.469 254.917 388.121 223.434 388.121 223.434L366.027 191.952L381.323 179.189Z" fill="#FFB8B8"/>
<path d="M429.895 6.70005C430.922 6.62381 431.952 6.8237 432.876 7.27906C433.712 7.89039 434.401 8.681 434.893 9.59314C437.159 13.007 440.114 15.9084 443.567 18.1112C446.144 19.7527 449.421 21.7994 448.98 24.8258C448.74 25.8405 448.314 26.8017 447.724 27.6603C445.338 31.8751 444.388 36.7534 445.018 41.5569L437.931 31.2427C436.806 29.6054 434.852 27.7572 433.153 28.7854C432.585 29.1297 432.211 29.7472 431.619 30.0493C430.206 30.7701 428.703 29.3921 427.452 28.416C423.14 25.0502 417.006 25.9319 411.64 26.9807C409.106 27.4757 406.323 28.1253 404.825 30.2305C402.336 33.7291 404.935 38.7841 403.483 42.8258C403.076 42.5407 402.731 42.1768 402.467 41.7556C402.204 41.3344 402.027 40.8646 401.948 40.3739C399.922 40.4366 397.44 40.2371 396.572 38.403C396.308 37.6842 396.167 36.9259 396.156 36.1601C395.837 33.0792 394.333 30.2686 393.336 27.3363C392.34 24.404 391.907 20.9676 393.588 18.3678C394.203 17.487 394.946 16.7025 395.791 16.0401C405.333 8.01205 417.879 6.68813 429.895 6.70005Z" fill="#2F2E41"/>
<path d="M381.323 90.6989L373.406 92.8031C373.406 92.8031 354.98 140.049 359.229 172.382C363.478 204.715 366.027 197.908 366.027 197.908C366.027 197.908 372.825 182.593 388.121 185.996L381.323 90.6989Z" fill="#15234A"/>
<path d="M465.123 461.449C467.172 464.237 466.761 468.223 468.576 471.17C470.15 473.724 473.115 475.063 475.083 477.326C475.711 478.078 476.271 478.884 476.756 479.735C478.581 482.797 480.065 486.722 478.267 489.8C476.821 492.276 473.781 493.244 470.992 493.904C467.468 494.738 463.806 495.405 460.242 494.768C456.677 494.131 453.193 491.945 451.921 488.55C451.672 487.696 451.375 486.857 451.032 486.036C449.1 482.227 443.039 482.186 441.062 478.4C439.678 475.751 440.95 472.549 442.221 469.844L446.105 461.583C447.394 458.841 452.619 460.418 455.343 459.761C458.895 458.904 462.567 457.96 465.123 461.449Z" fill="#2F2E41"/>
<path d="M493.493 196.207L457.802 251.513C457.802 251.513 435.708 279.592 428.91 266.829C422.112 254.066 452.704 232.794 452.704 232.794L475.648 190.251L493.493 196.207Z" fill="#FFB8B8"/>
<path d="M475.647 92.4006L482.446 90.6989C482.446 90.6989 496.042 94.9532 499.441 112.821C502.84 130.69 500.291 202.163 496.042 203.014C491.793 203.864 475.057 190.569 472.378 193.388C469.699 196.207 478.197 181.742 475.647 174.084C473.098 166.426 475.647 92.4006 475.647 92.4006Z" fill="#15234A"/>
</svg>

<svg width="510" height="496" fill="none" xmlns="http://www.w3.org/2000/svg"><path d="M143.848 280.914v136.74l-22.843 37.275-1.739 2.836H29.134l-1.821-176.851h116.535z" fill="#E6E6E6"/><path opacity=".1" d="M365.962 280.914v136.74l22.843 37.276 1.402-174.016h-24.245z" fill="#000"/><path d="M361.44 277.267v136.741l22.843 37.275 1.738 2.835h90.132l1.822-176.851H361.44z" fill="#E6E6E6"/><path opacity=".1" d="M458.37 277.267v136.741l-22.843 37.275-1.402-174.016h24.245z" fill="#000"/><path d="M0 274.533v8.204h489.81v-11.851l-45.521-23.702H40.059L0 274.533z" fill="#E6E6E6"/><path opacity=".1" d="M509.81 274.533v8.203H20v-11.85l489.81 3.647z" fill="#000"/><path d="M419.707 315.554h21.85l9.105-6.381h-40.97l10.015 6.381zM419.707 341.991h21.85l9.105-6.381h-40.97l10.015 6.381zM419.707 379.367h21.85l9.105-6.382h-40.97l10.015 6.382zM419.707 416.742h21.85l9.105-6.381h-40.97l10.015 6.381zM85.58 319.201H63.73l-9.105-6.382h40.97l-10.015 6.382zM85.58 345.637H63.73l-9.105-6.381h40.97l-10.015 6.381zM85.58 383.013H63.73l-9.105-6.381h40.97l-10.015 6.381zM85.58 420.389H63.73l-9.105-6.381h40.97l-10.015 6.381zM70.7 89.057h183.95a6.949 6.949 0 0 1 6.427 4.3c.35.845.53 1.751.529 2.666v124.073a6.96 6.96 0 0 1-6.956 6.966h-69.829l2.616 16.724s14.951 7.953 4.439 8.187c-10.513.234-60.037 0-60.037 0s-9.577 0 5.607-8.421l2.461-16.49H70.701a6.95 6.95 0 0 1-6.428-4.3 6.972 6.972 0 0 1-.529-2.666V96.023a6.973 6.973 0 0 1 2.037-4.926 6.955 6.955 0 0 1 4.92-2.04z" fill="#3F3D56"/><path d="M70.402 96.425h184.547v103.387H70.402V96.425zM162.675 94.32a1.169 1.169 0 1 1 .002-2.338 1.169 1.169 0 0 1-.002 2.338zM162.675 222.033a4.441 4.441 0 0 1-4.438-4.445 4.441 4.441 0 0 1 4.438-4.444 4.441 4.441 0 0 1 4.439 4.444 4.442 4.442 0 0 1-4.439 4.445z" fill="#F2F2F2"/><path d="M89.59 264.603v2.34h125.68v-1.872l-.173-.468-3.098-8.42H92.16l-2.57 8.42zM271.094 262.075c-.229.98-1.094 2.014-3.047 2.992-7.008 3.508-21.258-.936-21.258-.936s-10.979-1.871-10.979-6.783c.308-.212.63-.403.963-.573 2.946-1.561 12.715-5.412 30.037.163a7.23 7.23 0 0 1 3.293 2.16 3.46 3.46 0 0 1 .991 2.977z" fill="#3F3D56"/><path opacity=".1" d="M271.094 262.075c-8.578 3.291-16.224 3.537-24.071-1.92a17.209 17.209 0 0 0-10.251-3.38c2.947-1.561 12.716-5.412 30.038.163a7.23 7.23 0 0 1 3.293 2.16 3.46 3.46 0 0 1 .991 2.977z" fill="#000"/><path d="M260.339 260.155c1.677 0 3.037-.419 3.037-.936 0-.517-1.36-.935-3.037-.935-1.678 0-3.037.418-3.037.935 0 .517 1.359.936 3.037.936z" fill="#F2F2F2"/><path opacity=".1" d="M89.59 264.604v2.339h125.68v-1.872l-.173-.467H89.591z" fill="#000"/><path d="M431.137.021a6.308 6.308 0 0 1 3.662.82c1.09.747 1.776 2.055 2.477 3.273a39.16 39.16 0 0 0 10.656 12.052c3.166 2.323 7.191 5.218 6.649 9.5a12.826 12.826 0 0 1-1.543 4.01c-2.921 5.904-10.891 10.466-10.107 17.203-2.902-4.864.98-7.27-1.922-12.134-1.382-2.316-3.783-4.931-5.869-3.476-.699.487-1.158 1.36-1.885 1.788-1.736 1.02-3.582-.93-5.119-2.311-5.298-4.762-12.832-3.515-19.425-2.031-3.112.7-6.531 1.62-8.371 4.598-2.419 3.916 2.299 8.146 3.491 12.573a2.413 2.413 0 0 1-2.586 3.003c-1.978-.195-4.322-.356-4.439-1.225-2.489.089-5.538-.193-6.605-2.788a10.922 10.922 0 0 1-.511-3.173c-.391-4.36-2.239-8.336-3.463-12.485-1.224-4.148-1.756-9.01.309-12.689a14.688 14.688 0 0 1 2.707-3.293C400.965 1.877 416.376.004 431.137.02z" fill="#2F2E41"/><path d="M440.382 55.388s-2.55 21.271 6.798 22.973c9.347 1.702-8.498 30.632-8.498 30.632l-42.488 5.105 10.197-34.035s6.798-2.553 2.549-19.57c-4.249-17.017 31.442-5.105 31.442-5.105zM466.3 420.836l-3.4 46.798h-17.844l5.098-46.798H466.3zM335.436 332.346l-2.549 39.14-19.545-8.509 7.648-32.333 14.446 1.702z" fill="#FFB8B8"/><path d="M479.046 242.154s-.849 49.35-5.948 65.516c-5.099 16.167-4.249 17.018-3.399 19.57.85 2.553 1.699.851 1.699 5.106 0 4.254 1.7 71.473 0 77.429-1.699 5.956 5.099 16.166 0 17.017-5.098.851-28.892 0-29.742-5.105-.849-5.105 6.799-6.807 3.4-10.21-3.4-3.404-8.498-73.175-8.498-73.175l-11.897-48.5-22.094-25.526H355.83l-14.446 56.158s5.948 16.166 1.699 16.166c-4.249 0-29.742 5.105-29.742-13.614s8.498-74.025 10.197-75.727c1.7-1.702-.849-7.658 1.7-10.211 2.549-2.552 32.291-20.421 43.338-23.824 11.047-3.403 26.544-7.454 26.544-7.454l83.926 36.384z" fill="#15234A"/><path d="M313.342 356.17s12.746-4.254 18.695 8.509c5.948 12.763 3.399 16.166 3.399 16.166s-19.545 6.807-22.944 3.404c-1.479-1.481-6.175-1.995-11.008-2.104-7.362-.166-9.321-10.595-2.368-13.023a6.91 6.91 0 0 1 .63-.189c6.798-1.702 13.596-12.763 13.596-12.763z" fill="#2F2E41"/><path d="M421.262 69.427c-14.079 0-25.493-11.428-25.493-25.526 0-14.098 11.414-25.526 25.493-25.526 14.08 0 25.493 11.428 25.493 25.526 0 14.098-11.413 25.526-25.493 25.526z" fill="#FFB8B8"/><path d="M454.403 88.997s-41.639 8.509-51.836-5.105c-10.197-13.614-14.446 38.289-14.446 38.289l-5.099 54.456 7.648 29.78s39.94 32.333 52.686 34.886c12.747 2.552 32.291 4.254 32.291 4.254s-5.948-94.446-5.948-96.148c0-1.702-15.296-60.412-15.296-60.412z" fill="#3F3D56"/><path d="M441.74 73.04s9.265-5.315 11.814-.21c2.549 5.106 26.343 17.869 28.892 17.869 2.55 0-5.098 70.622-1.699 79.131 3.399 8.508 19.544 70.622 10.197 75.727-9.348 5.105-2.549-5.105-11.897 7.658-9.347 12.763-55.235 12.763-57.784 7.658-2.55-5.105 20.394-43.395 16.145-79.131-4.248-35.737-11.047-85.087-5.098-91.894 5.948-6.807 9.43-16.809 9.43-16.809zM411.065 78.787l-1.184-4.079s-35.356 11.737-37.056 19.394c-1.699 7.658-.85 61.263 5.099 65.517 5.948 4.255 14.446 11.062 8.498 21.272-5.949 10.21-12.747 21.272-17.846 22.123-5.098.85-14.446 6.807-11.896 12.763 2.549 5.956 33.141-5.106 33.141-5.106s20.394-15.315 19.544-39.14c-.849-23.824 1.7-92.744 1.7-92.744z" fill="#15234A"/><path d="M381.323 179.189l20.394 38.289s29.742 30.632 12.747 34.035c-16.995 3.404-26.343-28.079-26.343-28.079l-22.094-31.482 15.296-12.763z" fill="#FFB8B8"/><path d="M429.895 6.7a5.778 5.778 0 0 1 2.981.58 6.96 6.96 0 0 1 2.017 2.313 29.37 29.37 0 0 0 8.674 8.518c2.577 1.642 5.854 3.688 5.413 6.715a8.432 8.432 0 0 1-1.256 2.834 22.319 22.319 0 0 0-2.706 13.897l-7.087-10.314c-1.125-1.638-3.079-3.486-4.778-2.458-.568.345-.942.962-1.534 1.264-1.413.721-2.916-.657-4.167-1.633-4.312-3.366-10.446-2.484-15.812-1.435-2.534.495-5.317 1.144-6.815 3.25-2.489 3.498.11 8.553-1.342 12.595a3.714 3.714 0 0 1-1.535-2.452c-2.026.063-4.508-.137-5.376-1.971a6.789 6.789 0 0 1-.416-2.243c-.319-3.08-1.823-5.891-2.82-8.824-.996-2.932-1.429-6.368.252-8.968a10.854 10.854 0 0 1 2.203-2.328c9.542-8.028 22.088-9.352 34.104-9.34z" fill="#2F2E41"/><path d="M381.323 90.699l-7.917 2.104s-18.426 47.246-14.177 79.579c4.249 32.333 6.798 25.526 6.798 25.526s6.798-15.315 22.094-11.912l-6.798-95.297z" fill="#15234A"/><path d="M465.123 461.449c2.049 2.788 1.638 6.774 3.453 9.721 1.574 2.554 4.539 3.893 6.507 6.156a16.519 16.519 0 0 1 1.673 2.409c1.825 3.062 3.309 6.987 1.511 10.065-1.446 2.476-4.486 3.444-7.275 4.104-3.524.834-7.186 1.501-10.75.864-3.565-.637-7.049-2.823-8.321-6.218a23.81 23.81 0 0 0-.889-2.514c-1.932-3.809-7.993-3.85-9.97-7.636-1.384-2.649-.112-5.851 1.159-8.556l3.884-8.261c1.289-2.742 6.514-1.165 9.238-1.822 3.552-.857 7.224-1.801 9.78 1.688z" fill="#2F2E41"/><path d="M493.493 196.207l-35.691 55.306s-22.094 28.079-28.892 15.316c-6.798-12.763 23.794-34.035 23.794-34.035l22.944-42.543 17.845 5.956z" fill="#FFB8B8"/><path d="M475.647 92.4l6.799-1.701s13.596 4.254 16.995 22.122c3.399 17.869.85 89.342-3.399 90.193-4.249.85-20.985-12.445-23.664-9.626-2.679 2.819 5.819-11.646 3.269-19.304-2.549-7.658 0-81.683 0-81.683z" fill="#15234A"/></svg>
